X:10
T:The Three Merry Sisters
R:reel
S:This is *close* to Mickey Doherty's version
Z:John M. O'Hara and Larry Sanger
M:C|
L:1/8
K:EDor
dc |: BE~E2 BdcA | BE~E2 BEFA | BE~E2 BdcA | dD (3FED ADFA |
BE~E2 BEcE | BE~E2 BEFE | Dddc dfeg | fdec dBAd :|
B2ec d2cA | Beed BAFA | (3BBB ec d2cA |~B3c dAFA |
B2ec d2cA | Beec defg | afge fded |1 ~B3c dAFA :|2 ~B3c dF~F2 |]
Edcd BdAd |BE~E2 BEFD | Edcd BdAc | dD (3FED ADFA |
Bdcd B{d}BAd |BE~E2 BEFE | Dddc dfeg |1 fdec dBAF :|2 fdec dBAd |]
